symbolic/64x64/apps/agentdesktop.svg

<svg xmlns="http://www.w3.org/2000/svg" width="64" height="64" version="1"><path style="opacity:.2" d="M32 5A28 28 0 0 0 4 33a28 28 0 0 0 3.365 13.256l-.05-.041c1.41 3.315 1.307 4.219 1.085 6.988-.154 1.93-.678 3.9-1.332 5.01C6.476 59.217 6 60.256 6 60.52c0 .817 4.719.53 8.896-.54 4.646-1.189 5.301-1.312 8.782-.248a28 28 0 0 0 .107.034c.154.047.28.083.445.134l-.039-.031A28 28 0 0 0 32 61a28 28 0 0 0 28-28A28 28 0 0 0 32 5z"/><path style="fill:#3ebc45" d="M32 4A28 28 0 0 0 4 32a28 28 0 0 0 3.365 13.256l-.05-.041c1.41 3.315 1.307 4.219 1.085 6.988-.154 1.93-.678 3.9-1.332 5.01C6.476 58.217 6 59.256 6 59.52c0 .817 4.719.53 8.896-.54 4.646-1.189 5.301-1.312 8.782-.248a28 28 0 0 0 .107.034c.154.047.28.083.445.134l-.039-.031A28 28 0 0 0 32 60a28 28 0 0 0 28-28A28 28 0 0 0 32 4z"/><path style="fill:#fff;opacity:.2" d="M32 4A28 28 0 0 0 4 32a28 28 0 0 0 .021.406A28 28 0 0 1 32 5a28 28 0 0 1 27.979 27.586A28 28 0 0 0 60 32 28 28 0 0 0 32 4zM8.516 50.508c-.021.502-.063 1.041-.116 1.695-.154 1.93-.678 3.9-1.332 5.01C6.476 58.217 6 59.256 6 59.52c0 .109.097.196.254.267.195-.443.48-1.007.814-1.574.654-1.11 1.178-3.08 1.332-5.01.089-1.105.153-1.913.116-2.695z"/><path style="opacity:.2" d="M32 11a22 22 0 0 0-22 22 22 22 0 0 0 22 22 22 22 0 0 0 13.578-4.718l-2.46-3.13A18 18 0 0 1 32 51a18 18 0 0 1-18-18 18 18 0 0 1 18-18 18 18 0 0 1 18 18c0 8-2 8-3 8s-3 0-3-8a12 12 0 0 0-12-12 12 12 0 0 0-12 12 12 12 0 0 0 12 12 12 12 0 0 0 9.21-4.324C42.626 44.116 45.026 45 47 45c3 0 7-2 7-12a22 22 0 0 0-22-22zm0 14a8 8 0 0 1 8 8 8 8 0 0 1-8 8 8 8 0 0 1-8-8 8 8 0 0 1 8-8z"/><path style="fill:#fff" d="M32 10a22 22 0 0 0-22 22 22 22 0 0 0 22 22 22 22 0 0 0 13.578-4.718l-2.46-3.13A18 18 0 0 1 32 50a18 18 0 0 1-18-18 18 18 0 0 1 18-18 18 18 0 0 1 18 18c0 8-2 8-3 8s-3 0-3-8a12 12 0 0 0-12-12 12 12 0 0 0-12 12 12 12 0 0 0 12 12 12 12 0 0 0 9.21-4.324C42.626 43.116 45.026 44 47 44c3 0 7-2 7-12a22 22 0 0 0-22-22zm0 14a8 8 0 0 1 8 8 8 8 0 0 1-8 8 8 8 0 0 1-8-8 8 8 0 0 1 8-8z"/></svg>

<svg xmlns="http://www.w3.org/2000/svg" width="64" height="64" version="1">
 <path style="opacity:0.2" d="M 32,5 A 28,28 0 0 0 4,33 28,28 0 0 0 7.3652,46.256 L 7.3145,46.215 C 8.7257,49.53 8.6224,50.434 8.4004,53.203 8.2457,55.133 7.7222,57.103 7.0684,58.213 6.4756,59.217 6,60.256 6,60.52 6,61.337 10.719,61.05 14.896,59.98 19.542,58.791 20.197,58.668 23.678,59.732 A 28,28 0 0 0 23.785,59.766 C 23.939,59.813 24.065,59.849 24.23,59.9 L 24.191,59.869 A 28,28 0 0 0 32,61 28,28 0 0 0 60,33 28,28 0 0 0 32,5 Z"/>
 <path style="fill:#3ebc45" d="M 32,4 A 28,28 0 0 0 4,32 28,28 0 0 0 7.3652,45.256 L 7.3145,45.215 C 8.7257,48.53 8.6224,49.434 8.4004,52.203 8.2457,54.133 7.7222,56.103 7.0684,57.213 6.4756,58.217 6,59.256 6,59.52 6,60.337 10.719,60.05 14.896,58.98 19.542,57.791 20.197,57.668 23.678,58.732 A 28,28 0 0 0 23.785,58.766 C 23.939,58.813 24.065,58.849 24.23,58.9 L 24.191,58.869 A 28,28 0 0 0 32,60 28,28 0 0 0 60,32 28,28 0 0 0 32,4 Z"/>
 <path style="fill:#ffffff;opacity:0.2" d="M 32 4 A 28 28 0 0 0 4 32 A 28 28 0 0 0 4.0215 32.406 A 28 28 0 0 1 32 5 A 28 28 0 0 1 59.979 32.586 A 28 28 0 0 0 60 32 A 28 28 0 0 0 32 4 z M 8.5156 50.508 C 8.4948 51.01 8.4528 51.549 8.4004 52.203 C 8.2457 54.133 7.7222 56.103 7.0684 57.213 C 6.4756 58.217 6 59.256 6 59.52 C 6 59.629 6.0969 59.716 6.2539 59.787 C 6.4494 59.344 6.7333 58.78 7.0684 58.213 C 7.7222 57.103 8.2457 55.133 8.4004 53.203 C 8.489 52.098 8.5535 51.29 8.5156 50.508 z"/>
 <path style="opacity:0.2" d="M 32,11 A 22,22 0 0 0 10,33 22,22 0 0 0 32,55 22,22 0 0 0 45.578,50.282 L 43.118,47.152 A 18,18 0 0 1 32,51 18,18 0 0 1 14,33 18,18 0 0 1 32,15 18,18 0 0 1 50,33 C 50,41 48,41 47,41 46,41 44,41 44,33 A 12,12 0 0 0 32,21 12,12 0 0 0 20,33 12,12 0 0 0 32,45 12,12 0 0 0 41.21,40.676 C 42.626,44.116 45.026,45 47,45 50,45 54,43 54,33 A 22,22 0 0 0 32,11 Z M 32,25 A 8,8 0 0 1 40,33 8,8 0 0 1 32,41 8,8 0 0 1 24,33 8,8 0 0 1 32,25 Z"/>
 <path style="fill:#ffffff" d="M 32,10 A 22,22 0 0 0 10,32 22,22 0 0 0 32,54 22,22 0 0 0 45.578,49.282 L 43.118,46.152 A 18,18 0 0 1 32,50 18,18 0 0 1 14,32 18,18 0 0 1 32,14 18,18 0 0 1 50,32 C 50,40 48,40 47,40 46,40 44,40 44,32 A 12,12 0 0 0 32,20 12,12 0 0 0 20,32 12,12 0 0 0 32,44 12,12 0 0 0 41.21,39.676 C 42.626,43.116 45.026,44 47,44 50,44 54,42 54,32 A 22,22 0 0 0 32,10 Z M 32,24 A 8,8 0 0 1 40,32 8,8 0 0 1 32,40 8,8 0 0 1 24,32 8,8 0 0 1 32,24 Z"/>
</svg>
